!!!COM: Music21
!!!OTL: Pasacalles de Poio
!!!OMV: pezas_pasacorredoiras_pasacalles-de-poio_pasacalles-de-poio-partitura.musicxml
**kern
*I"Bagpipes
*I'Bag
*clefG^2
*k[]
*M2/4
=1
!LO:TX:a:t=Allegretto
*MM120
!LO:TX:a:t=[quarter]=120
8aaL
8ffJ
16ffLL
16ee
16ff
16aaJJ
=
8ggL
8eeJ
16eeLL
16dd
16ee
16ggJJ
=
8ffL
8ddJ
16ffLL
16dd
16ff
16aaJJ
=
16ggLL
16ff
16ee
16ddJJ
4cc
=
8aaL
8ffJ
16ffLL
16ee
16ff
16aaJJ
=
8ggL
8eeJ
16eeLL
16dd
16ee
16ggJJ
=
8ffL
8ddJ
16ffLL
16dd
16b
16ddJJ
!!linebreak:original
=
2cc
=||
8dd
4ddT
8dd
=
8ee
4eet
8ee
=
8ffL
8eeJ
16ffLL
16dd
16ff
16aaJJ
=
16ggLL
16ff
16ee
16ddJJ
4cc
=
8dd
4ddT
8dd
=
8ee
4eet
8ee
=
8ggL
8ffJ
16ggLL
16ee
16ff
16ddJJ
=
2cc
==
*-
